X:465
T: Yuanxiao guandeng
N: C1500
O: China, Guizhou, Dushan
S: II, 154]
R: Wuge, Huadeng diao]
M: 2/4
L: 1/16
K: G
dBedB2B2 | dBedB4 | e2edBABd | e2e2BdBd | ede2e2E2
AGAGA2Bd | d2E2dedB | A2GEAGAd | B2B2B2ED
d4B2d2 | A2BAGBAGE4 | GEGBA2AG | G2G2AGE2 | D2D2Bded | e2e2e2E2

